X: 4
I: linebreak $
T: John Tallow's Canon
P: 
C: Pat Shaw, 1965
C: 
N: 
N: 
K: G major
M: 6/8
L: 1/8
P: A
D |: "G"G2B d2B | "C"cde "D"d2c | "G"B2d BAG | "C"ABG "D"FED | "G"G2B d2B | "C"cde "D"def | 
"G"g2d BAG | "C"ABG "D"FED :: 
P: B
"G"Bdg dcB | "C"cdB "D"A2d | "G"gab bag | "C"eag "D"fed | 
"G"Bdg gdB | "C"cdB "D"A2d | "G"g2d BAG | "C"ABG "D"FED :| 

